X: 100059
M: 2/4
L: 1/16
K: G
uG2 |\
|: uB2 |\
c2e2g2e2 | (d2B2)B4 | d2((3ded) c2A2 | G2B2B2B2 |\
c2e2g2e2 | (d2B2)B4 | d2((3ded) c2A2 | A2G2G2 :|
|: z2 |\
vG4(B2d2) | =f4(e2f2) | g2c2B2d2 | dcBA G=FEF |\
|: z2 |\
vA4(c2=f2) | a4(g2f2) | {a}g2f2g2a2 | g4(e2c2) |\


